X: 42413
T: West Cork, The
R: reel
M: 4/4
K: Gmajor
Bcde fddc|dggf g3a|b2ag fdde|fdcA G3A|
Bcde fddc|dggf g3a|b2ag fdde|fdcA G2ga||
bgag fdda|bgaf g3a|bgag fdde|fdcA G2ga|
bgag fdda|bgab c'2ba|bgag fdde|fdcA G3A||

